COLOR/action 16/16/selection-raise.svg

<svg height="16" width="16" xmlns="http://www.w3.org/2000/svg"><g transform="matrix(1 0 0 -1 0 16)"><g fill="#666"><path d="m0 1h8v2h-8z"/><path d="m0 5h8v2h-8z"/><path d="m0 13h8v2h-8z"/></g><path d="m0 9h16v2h-16z" fill="#e95420"/><path d="m0 1v.5h8v-.5zm0 4v.5h8v-.5zm0 4v.5h16v-.5zm0 4v.5h8v-.5z" opacity=".2"/><path d="m0 2.5v.5h8v-.5zm0 4v.5h8v-.5zm0 4v.5h16v-.5zm0 4v.5h8v-.5z" fill="#fff" opacity=".3"/><path d="m9 5.9999996 3.497082 4.0000154 3.502918-4.0000154h-2v-5.0000001h-3v5.0000001z" display="block" fill="#1a7fd4"/><path d="m9 6 3.498047 4 3.501953-4h-.4375l-3.064453 3.5-3.060547-3.5z" fill="#fff" opacity=".3"/><path d="m11 1v.5h3v-.5zm-2 5 .4375.5h1.5625v-.5zm5 0v.5h1.5625l.4375-.5z" opacity=".2"/></g></svg>

<?xml version="1.0" encoding="UTF-8" standalone="no"?>
<svg
   xmlns:dc="http://purl.org/dc/elements/1.1/"
   xmlns:cc="http://creativecommons.org/ns#"
   xmlns:rdf="http://www.w3.org/1999/02/22-rdf-syntax-ns#"
   xmlns:svg="http://www.w3.org/2000/svg"
   xmlns="http://www.w3.org/2000/svg"
   xmlns:sodipodi="http://sodipodi.sourceforge.net/DTD/sodipodi-0.dtd"
   xmlns:inkscape="http://www.inkscape.org/namespaces/inkscape"
   height="16"
   width="16"
   version="1.1"
   id="svg14"
   sodipodi:docname="selection-raise.svg"
   inkscape:version="0.92.4 (5da689c313, 2019-01-14)">
  <metadata
     id="metadata20">
    <rdf:RDF>
      <cc:Work
         rdf:about="">
        <dc:format>image/svg+xml</dc:format>
        <dc:type
           rdf:resource="http://purl.org/dc/dcmitype/StillImage" />
      </cc:Work>
    </rdf:RDF>
  </metadata>
  <defs
     id="defs18" />
  <sodipodi:namedview
     pagecolor="#ffffff"
     bordercolor="#666666"
     borderopacity="1"
     objecttolerance="10"
     gridtolerance="10"
     guidetolerance="10"
     inkscape:pageopacity="0"
     inkscape:pageshadow="2"
     inkscape:window-width="1920"
     inkscape:window-height="1016"
     id="namedview16"
     showgrid="false"
     inkscape:zoom="14.75"
     inkscape:cx="8"
     inkscape:cy="8"
     inkscape:window-x="0"
     inkscape:window-y="27"
     inkscape:window-maximized="1"
     inkscape:current-layer="g891" />
  <g
     transform="matrix(1,0,0,-1,0,16)"
     id="g891">
    <g
       style="fill:#666666"
       id="g8-3">
      <path
         inkscape:connector-curvature="0"
         id="path2-6"
         d="M 0,1 H 8 V 3 H 0 Z" />
      <path
         inkscape:connector-curvature="0"
         id="path4-7"
         d="M 0,5 H 8 V 7 H 0 Z" />
      <path
         inkscape:connector-curvature="0"
         id="path6-5"
         d="m 0,13 h 8 v 2 H 0 Z" />
    </g>
    <path
       style="fill:#e95420"
       inkscape:connector-curvature="0"
       id="path10-3"
       d="m 0,9 h 16 v 2 H 0 Z" />
    <path
       inkscape:connector-curvature="0"
       style="opacity:0.2;fill:#000000;fill-opacity:1"
       id="path839"
       d="M 0,1 V 1.5 H 8 V 1 Z M 0,5 V 5.5 H 8 V 5 Z M 0,9 V 9.5 H 16 V 9 Z m 0,4 v 0.5 H 8 V 13 Z" />
    <path
       inkscape:connector-curvature="0"
       style="opacity:0.3;fill:#ffffff;fill-opacity:1"
       id="path865"
       d="M 0,2.5 V 3 H 8 V 2.5 Z m 0,4 V 7 H 8 V 6.5 Z m 0,4 V 11 h 16 v -0.5 z m 0,4 V 15 h 8 v -0.5 z" />
    <path
       style="display:block;fill:#1a7fd4"
       inkscape:connector-curvature="0"
       id="path12-5"
       display="block"
       d="M 9,5.9999996 12.497082,10.000015 16,5.9999996 H 14 V 0.9999995 h -3 v 5.0000001 z" />
    <path
       inkscape:connector-curvature="0"
       style="opacity:0.3;fill:#ffffff;fill-opacity:1"
       id="path871"
       d="M 9,6 12.498047,10 16,6 H 15.5625 L 12.498047,9.5 9.4375,6 Z" />
    <path
       inkscape:connector-curvature="0"
       style="opacity:0.2;fill:#000000;fill-opacity:1"
       id="path873"
       d="m 11,1 v 0.5 h 3 V 1 Z M 9,6 9.4375,6.5 H 11 V 6 Z m 5,0 v 0.5 h 1.5625 L 16,6 Z" />
  </g>
</svg>
